assets/image/footer/facebook-square-brands.svg

<svg height="33" viewBox="0 0 33 33" width="33" xmlns="http://www.w3.org/2000/svg"><path d="m29.464 32h-25.928a3.536 3.536 0 0 0 -3.536 3.536v25.928a3.536 3.536 0 0 0 3.536 3.536h10.11v-11.219h-4.641v-5.281h4.641v-4.025c0-4.578 2.725-7.107 6.9-7.107a28.113 28.113 0 0 1 4.09.357v4.493h-2.3a2.641 2.641 0 0 0 -2.977 2.853v3.429h5.066l-.81 5.281h-4.261v11.219h10.11a3.536 3.536 0 0 0 3.536-3.536v-25.928a3.536 3.536 0 0 0 -3.536-3.536z" fill="#c3504f" transform="translate(0 -32)"/></svg>

<svg xmlns="http://www.w3.org/2000/svg" width="33" height="33" viewBox="0 0 33 33">
  <path id="facebook-square-brands" d="M29.464,32H3.536A3.536,3.536,0,0,0,0,35.536V61.464A3.536,3.536,0,0,0,3.536,65h10.11V53.781H9.005V48.5h4.641V44.475c0-4.578,2.725-7.107,6.9-7.107a28.113,28.113,0,0,1,4.09.357v4.493h-2.3a2.641,2.641,0,0,0-2.977,2.853V48.5h5.066l-.81,5.281H19.354V65h10.11A3.536,3.536,0,0,0,33,61.464V35.536A3.536,3.536,0,0,0,29.464,32Z" transform="translate(0 -32)" fill="#c3504f"/>
</svg>
